X: 39265
T: Tailor's Choice, The
R: reel
M: 4/4
K: Gmajor
D3 B/B/ BABG|D2 BG AGEG|GEDB BAGB|A/B/cBG AGE/F/G|
D3 B/B/ BAGE|D2 BG AGEG|GEDB BAGB|A/B/cBG AGE/F/G||
d2 B/A/G dG B/A/G|d2 B/A/G AGE/F/G|d2 B/A/G dGB/A/G|A/B/cBG AGE/F/G|
d2 B/A/G d2 B/A/G|d2 B/A/G AGE/F/G|cBcd efge|d2 B/A/G AGE/F/G||

